X: 121318
T: Let's Be Drinking!
T: B\'im\'id ag \'Ol is ag P\'ogadh na mBan
S: "Ceol Rince na hEireann" 1/17
Z: B.Black
N: F's in measures 10 and 14 are "piper's F's"
L: 1/8
M: 6/8
R: jig
K: G
A|DGG B3|cBc d2A|DGG B2d|cAG AGF|
DGG B3|cBc def|gbg afd|cAG G2 :|
A|G(3B^cd g3|gfd f3|GBd g3|gfd cAG|
GBd g3|abg f2g|abg afd|cAG G2 :|
